polaris-icons/icons/newicons/WeightMinor.svg

<svg width="20" height="20" viewBox="0 0 20 20" fill="none" xmlns="http://www.w3.org/2000/svg">
<path d="M11.1359 5.60699C11.491 5.8201 11.6062 6.2808 11.3931 6.63599L10.9836 7.31854C10.9944 7.37739 11 7.43804 11 7.5C11 8.05228 10.5523 8.5 10 8.5C9.44772 8.5 9 8.05228 9 7.5C9 7.05317 9.29307 6.67478 9.69747 6.54658L10.1069 5.86424C10.32 5.50906 10.7807 5.39388 11.1359 5.60699Z" fill="black"/>
<path fill-rule="evenodd" clip-rule="evenodd" d="M17 9C17 7.42648 15.7886 6.1359 14.2475 6.01006C13.6326 4.25702 11.9631 3 10 3C8.03691 3 6.36742 4.25702 5.75252 6.01006C4.21144 6.1359 3 7.42648 3 9V14C3 15.6569 4.34315 17 6 17H14C15.6569 17 17 15.6569 17 14V9ZM10 10.5C11.6569 10.5 13 9.15685 13 7.5C13 5.84315 11.6569 4.5 10 4.5C8.34315 4.5 7 5.84315 7 7.5C7 9.15685 8.34315 10.5 10 10.5ZM10 12C12.4569 12 14.4539 10.0311 14.4992 7.58508C15.0822 7.79077 15.5 8.3466 15.5 9V14C15.5 14.8284 14.8284 15.5 14 15.5H6C5.17157 15.5 4.5 14.8284 4.5 14V9C4.5 8.3466 4.91778 7.79077 5.50079 7.58507C5.54614 10.0311 7.54314 12 10 12Z" fill="black"/>
</svg>

<svg viewBox="0 0 20 20" fill="none" xmlns="http://www.w3.org/2000/svg"><path d="M11.136 5.607a.75.75 0 0 1 .257 1.029l-.41.683a1 1 0 1 1-1.286-.772l.41-.683a.75.75 0 0 1 1.029-.257Z" fill="#5C5F62"/><path fill-rule="evenodd" clip-rule="evenodd" d="M17 9a3 3 0 0 0-2.752-2.99 4.502 4.502 0 0 0-8.495 0 3 3 0 0 0-2.753 2.99v5a3 3 0 0 0 3 3h8a3 3 0 0 0 3-3v-5Zm-7 1.5a3 3 0 1 0 0-6 3 3 0 0 0 0 6Zm0 1.5a4.5 4.5 0 0 0 4.5-4.415 1.5 1.5 0 0 1 1 1.415v5a1.5 1.5 0 0 1-1.5 1.5h-8a1.5 1.5 0 0 1-1.5-1.5v-5a1.5 1.5 0 0 1 1-1.415 4.5 4.5 0 0 0 4.5 4.415Z" fill="#5C5F62"/></svg>
